images/50947139.svg

<?xml version="1.0" encoding="UTF-8"?>
<svg xmlns="http://www.w3.org/2000/svg" xmlns:xlink="http://www.w3.org/1999/xlink" width="300pt" height="300pt" viewBox="0 0 300 300" version="1.1">
<defs>
<g>
<symbol overflow="visible" id="glyph0-0">
<path style="stroke:none;" d="M 0.453125 1.59375 L 0.453125 -6.34375 L 4.953125 -6.34375 L 4.953125 1.59375 Z M 0.953125 1.09375 L 4.453125 1.09375 L 4.453125 -5.84375 L 0.953125 -5.84375 Z M 0.953125 1.09375 "/>
</symbol>
<symbol overflow="visible" id="glyph0-1">
<path style="stroke:none;" d="M 3.546875 -5.953125 C 2.898438 -5.953125 2.382812 -5.710938 2 -5.234375 C 1.625 -4.753906 1.4375 -4.101562 1.4375 -3.28125 C 1.4375 -2.445312 1.625 -1.789062 2 -1.3125 C 2.382812 -0.832031 2.898438 -0.59375 3.546875 -0.59375 C 4.191406 -0.59375 4.703125 -0.832031 5.078125 -1.3125 C 5.453125 -1.789062 5.640625 -2.445312 5.640625 -3.28125 C 5.640625 -4.101562 5.453125 -4.753906 5.078125 -5.234375 C 4.703125 -5.710938 4.191406 -5.953125 3.546875 -5.953125 Z M 3.546875 -6.6875 C 4.460938 -6.6875 5.195312 -6.375 5.75 -5.75 C 6.300781 -5.132812 6.578125 -4.3125 6.578125 -3.28125 C 6.578125 -2.238281 6.300781 -1.410156 5.75 -0.796875 C 5.195312 -0.179688 4.460938 0.125 3.546875 0.125 C 2.617188 0.125 1.878906 -0.179688 1.328125 -0.796875 C 0.773438 -1.410156 0.5 -2.238281 0.5 -3.28125 C 0.5 -4.3125 0.773438 -5.132812 1.328125 -5.75 C 1.878906 -6.375 2.617188 -6.6875 3.546875 -6.6875 Z M 3.546875 -6.6875 "/>
</symbol>
<symbol overflow="visible" id="glyph0-2">
<path style="stroke:none;" d="M 0.890625 -6.5625 L 2.078125 -6.5625 L 4.984375 -1.078125 L 4.984375 -6.5625 L 5.84375 -6.5625 L 5.84375 0 L 4.65625 0 L 1.75 -5.484375 L 1.75 0 L 0.890625 0 Z M 0.890625 -6.5625 "/>
</symbol>
<symbol overflow="visible" id="glyph0-3">
<path style="stroke:none;" d="M 0.890625 -6.5625 L 1.765625 -6.5625 L 1.765625 -3.875 L 5 -3.875 L 5 -6.5625 L 5.890625 -6.5625 L 5.890625 0 L 5 0 L 5 -3.125 L 1.765625 -3.125 L 1.765625 0 L 0.890625 0 Z M 0.890625 -6.5625 "/>
</symbol>
<symbol overflow="visible" id="glyph1-0">
<path style="stroke:none;" d="M 0.40625 1.421875 L 0.40625 -5.640625 L 4.40625 -5.640625 L 4.40625 1.421875 Z M 0.84375 0.96875 L 3.953125 0.96875 L 3.953125 -5.1875 L 0.84375 -5.1875 Z M 0.84375 0.96875 "/>
</symbol>
<symbol overflow="visible" id="glyph1-1">
<path style="stroke:none;" d="M 1.53125 -0.671875 L 4.296875 -0.671875 L 4.296875 0 L 0.59375 0 L 0.59375 -0.671875 C 0.882812 -0.972656 1.289062 -1.382812 1.8125 -1.90625 C 2.332031 -2.4375 2.65625 -2.773438 2.78125 -2.921875 C 3.039062 -3.203125 3.21875 -3.441406 3.3125 -3.640625 C 3.414062 -3.835938 3.46875 -4.03125 3.46875 -4.21875 C 3.46875 -4.53125 3.359375 -4.785156 3.140625 -4.984375 C 2.921875 -5.179688 2.640625 -5.28125 2.296875 -5.28125 C 2.046875 -5.28125 1.78125 -5.234375 1.5 -5.140625 C 1.226562 -5.054688 0.9375 -4.925781 0.625 -4.75 L 0.625 -5.546875 C 0.945312 -5.679688 1.242188 -5.78125 1.515625 -5.84375 C 1.796875 -5.90625 2.050781 -5.9375 2.28125 -5.9375 C 2.882812 -5.9375 3.363281 -5.785156 3.71875 -5.484375 C 4.082031 -5.179688 4.265625 -4.78125 4.265625 -4.28125 C 4.265625 -4.039062 4.21875 -3.8125 4.125 -3.59375 C 4.03125 -3.375 3.867188 -3.117188 3.640625 -2.828125 C 3.566406 -2.753906 3.351562 -2.535156 3 -2.171875 C 2.65625 -1.816406 2.164062 -1.316406 1.53125 -0.671875 Z M 1.53125 -0.671875 "/>
</symbol>
</g>
</defs>
<g id="surface15969">
<rect x="0" y="0" width="300" height="300" style="fill:rgb(100%,100%,100%);fill-opacity:1;stroke:none;"/>
<path style="fill:none;stroke-width:1.2;stroke-linecap:butt;stroke-linejoin:miter;stroke:rgb(100%,0%,0%);stroke-opacity:1;stroke-miterlimit:10;" d="M 205.40625 140.671875 L 211.839844 145.902344 "/>
<path style="fill:none;stroke-width:1.2;stroke-linecap:butt;stroke-linejoin:miter;stroke:rgb(0%,0%,0%);stroke-opacity:1;stroke-miterlimit:10;" d="M 211.839844 145.902344 L 218.273438 151.132812 "/>
<path style="fill:none;stroke-width:1.2;stroke-linecap:butt;stroke-linejoin:miter;stroke:rgb(100%,0%,0%);stroke-opacity:1;stroke-miterlimit:10;" d="M 205.40625 140.671875 L 197.660156 143.628906 "/>
<path style="fill:none;stroke-width:1.2;stroke-linecap:butt;stroke-linejoin:miter;stroke:rgb(0%,0%,0%);stroke-opacity:1;stroke-miterlimit:10;" d="M 197.660156 143.628906 L 189.914062 146.585938 "/>
<path style=" stroke:none;fill-rule:nonzero;fill:rgb(100%,100%,100%);fill-opacity:1;" d="M 201.40625 135.171875 L 209.40625 135.171875 L 209.40625 146.171875 L 201.40625 146.171875 Z M 201.40625 135.171875 "/>
<g style="fill:rgb(100%,0%,0%);fill-opacity:1;">
  <use xlink:href="#glyph0-1" x="201.40625" y="143.834961"/>
</g>
<path style="fill:none;stroke-width:1.2;stroke-linecap:butt;stroke-linejoin:miter;stroke:rgb(0%,0%,0%);stroke-opacity:1;stroke-miterlimit:10;" d="M 218.273438 151.132812 L 233.765625 145.222656 "/>
<path style="fill:none;stroke-width:1.2;stroke-linecap:butt;stroke-linejoin:miter;stroke:rgb(0%,0%,0%);stroke-opacity:1;stroke-miterlimit:10;" d="M 233.765625 145.222656 L 240.199219 150.453125 "/>
<path style="fill:none;stroke-width:1.2;stroke-linecap:butt;stroke-linejoin:miter;stroke:rgb(0%,0%,100%);stroke-opacity:1;stroke-miterlimit:10;" d="M 240.199219 150.453125 L 246.632812 155.679688 "/>
<path style="fill:none;stroke-width:1.2;stroke-linecap:butt;stroke-linejoin:miter;stroke:rgb(0%,0%,0%);stroke-opacity:1;stroke-miterlimit:10;" d="M 237.511719 143.238281 L 242.660156 147.421875 "/>
<path style="fill:none;stroke-width:1.2;stroke-linecap:butt;stroke-linejoin:miter;stroke:rgb(0%,0%,100%);stroke-opacity:1;stroke-miterlimit:10;" d="M 242.660156 147.421875 L 247.808594 151.609375 "/>
<path style="fill:none;stroke-width:1.2;stroke-linecap:butt;stroke-linejoin:miter;stroke:rgb(0%,0%,0%);stroke-opacity:1;stroke-miterlimit:10;" d="M 236.390625 128.847656 L 233.765625 145.222656 "/>
<path style="fill:none;stroke-width:1.2;stroke-linecap:butt;stroke-linejoin:miter;stroke:rgb(0%,0%,100%);stroke-opacity:1;stroke-miterlimit:10;" d="M 246.632812 155.679688 L 254.378906 152.726562 "/>
<path style="fill:none;stroke-width:1.2;stroke-linecap:butt;stroke-linejoin:miter;stroke:rgb(0%,0%,0%);stroke-opacity:1;stroke-miterlimit:10;" d="M 254.378906 152.726562 L 262.125 149.769531 "/>
<path style=" stroke:none;fill-rule:nonzero;fill:rgb(100%,100%,100%);fill-opacity:1;" d="M 243.632812 150.179688 L 250.632812 150.179688 L 250.632812 161.179688 L 243.632812 161.179688 Z M 243.632812 150.179688 "/>
<g style="fill:rgb(0%,0%,100%);fill-opacity:1;">
  <use xlink:href="#glyph0-2" x="243.632812" y="158.842773"/>
</g>
<path style="fill:none;stroke-width:1.2;stroke-linecap:butt;stroke-linejoin:miter;stroke:rgb(0%,0%,0%);stroke-opacity:1;stroke-miterlimit:10;" d="M 262.125 149.769531 L 264.75 133.394531 "/>
<path style="fill:none;stroke-width:1.2;stroke-linecap:butt;stroke-linejoin:miter;stroke:rgb(0%,0%,0%);stroke-opacity:1;stroke-miterlimit:10;" d="M 258.535156 147.511719 L 260.636719 134.414062 "/>
<path style="fill:none;stroke-width:1.2;stroke-linecap:butt;stroke-linejoin:miter;stroke:rgb(0%,0%,0%);stroke-opacity:1;stroke-miterlimit:10;" d="M 264.75 133.394531 L 251.882812 122.933594 "/>
<path style="fill:none;stroke-width:1.2;stroke-linecap:butt;stroke-linejoin:miter;stroke:rgb(0%,0%,0%);stroke-opacity:1;stroke-miterlimit:10;" d="M 251.882812 122.933594 L 236.390625 128.847656 "/>
<path style="fill:none;stroke-width:1.2;stroke-linecap:butt;stroke-linejoin:miter;stroke:rgb(0%,0%,0%);stroke-opacity:1;stroke-miterlimit:10;" d="M 251.726562 127.171875 L 239.332031 131.902344 "/>
<path style="fill:none;stroke-width:1.2;stroke-linecap:butt;stroke-linejoin:miter;stroke:rgb(0%,0%,0%);stroke-opacity:1;stroke-miterlimit:10;" d="M 189.914062 146.585938 L 177.046875 136.125 "/>
<path style="fill:none;stroke-width:1.2;stroke-linecap:butt;stroke-linejoin:miter;stroke:rgb(0%,0%,0%);stroke-opacity:1;stroke-miterlimit:10;" d="M 186.164062 148.566406 L 175.871094 140.199219 "/>
<path style="fill:none;stroke-width:1.2;stroke-linecap:butt;stroke-linejoin:miter;stroke:rgb(0%,0%,0%);stroke-opacity:1;stroke-miterlimit:10;" d="M 187.289062 162.960938 L 189.914062 146.585938 "/>
<path style="fill:none;stroke-width:1.2;stroke-linecap:butt;stroke-linejoin:miter;stroke:rgb(0%,0%,0%);stroke-opacity:1;stroke-miterlimit:10;" d="M 177.046875 136.125 L 161.554688 142.039062 "/>
<path style="fill:none;stroke-width:1.2;stroke-linecap:butt;stroke-linejoin:miter;stroke:rgb(0%,0%,0%);stroke-opacity:1;stroke-miterlimit:10;" d="M 161.554688 142.039062 L 158.929688 158.414062 "/>
<path style="fill:none;stroke-width:1.2;stroke-linecap:butt;stroke-linejoin:miter;stroke:rgb(0%,0%,0%);stroke-opacity:1;stroke-miterlimit:10;" d="M 165.144531 144.292969 L 163.042969 157.394531 "/>
<path style="fill:none;stroke-width:1.2;stroke-linecap:butt;stroke-linejoin:miter;stroke:rgb(0%,0%,0%);stroke-opacity:1;stroke-miterlimit:10;" d="M 158.929688 158.414062 L 171.796875 168.871094 "/>
<path style="fill:none;stroke-width:1.2;stroke-linecap:butt;stroke-linejoin:miter;stroke:rgb(0%,0%,0%);stroke-opacity:1;stroke-miterlimit:10;" d="M 158.929688 158.414062 L 143.4375 164.324219 "/>
<path style="fill:none;stroke-width:1.2;stroke-linecap:butt;stroke-linejoin:miter;stroke:rgb(0%,0%,0%);stroke-opacity:1;stroke-miterlimit:10;" d="M 171.796875 168.871094 L 187.289062 162.960938 "/>
<path style="fill:none;stroke-width:1.2;stroke-linecap:butt;stroke-linejoin:miter;stroke:rgb(0%,0%,0%);stroke-opacity:1;stroke-miterlimit:10;" d="M 171.953125 164.636719 L 184.347656 159.90625 "/>
<path style="fill:none;stroke-width:1.2;stroke-linecap:butt;stroke-linejoin:miter;stroke:rgb(0%,0%,0%);stroke-opacity:1;stroke-miterlimit:10;" d="M 141.511719 164.015625 L 140.199219 172.203125 "/>
<path style="fill:none;stroke-width:1.2;stroke-linecap:butt;stroke-linejoin:miter;stroke:rgb(100%,0%,0%);stroke-opacity:1;stroke-miterlimit:10;" d="M 140.199219 172.203125 L 138.882812 180.390625 "/>
<path style="fill:none;stroke-width:1.2;stroke-linecap:butt;stroke-linejoin:miter;stroke:rgb(0%,0%,0%);stroke-opacity:1;stroke-miterlimit:10;" d="M 145.363281 164.632812 L 144.050781 172.820312 "/>
<path style="fill:none;stroke-width:1.2;stroke-linecap:butt;stroke-linejoin:miter;stroke:rgb(100%,0%,0%);stroke-opacity:1;stroke-miterlimit:10;" d="M 144.050781 172.820312 L 142.738281 181.007812 "/>
<path style="fill:none;stroke-width:1.2;stroke-linecap:butt;stroke-linejoin:miter;stroke:rgb(0%,0%,0%);stroke-opacity:1;stroke-miterlimit:10;" d="M 143.4375 164.324219 L 137.003906 159.09375 "/>
<path style="fill:none;stroke-width:1.2;stroke-linecap:butt;stroke-linejoin:miter;stroke:rgb(0%,0%,100%);stroke-opacity:1;stroke-miterlimit:10;" d="M 137.003906 159.09375 L 130.570312 153.863281 "/>
<path style=" stroke:none;fill-rule:nonzero;fill:rgb(100%,100%,100%);fill-opacity:1;" d="M 136.8125 175.199219 L 144.8125 175.199219 L 144.8125 186.199219 L 136.8125 186.199219 Z M 136.8125 175.199219 "/>
<g style="fill:rgb(100%,0%,0%);fill-opacity:1;">
  <use xlink:href="#glyph0-1" x="136.8125" y="183.862305"/>
</g>
<path style="fill:none;stroke-width:1.2;stroke-linecap:butt;stroke-linejoin:miter;stroke:rgb(0%,0%,100%);stroke-opacity:1;stroke-miterlimit:10;" d="M 130.570312 153.863281 L 122.824219 156.820312 "/>
<path style="fill:none;stroke-width:1.2;stroke-linecap:butt;stroke-linejoin:miter;stroke:rgb(0%,0%,0%);stroke-opacity:1;stroke-miterlimit:10;" d="M 122.824219 156.820312 L 115.078125 159.777344 "/>
<path style=" stroke:none;fill-rule:nonzero;fill:rgb(100%,100%,100%);fill-opacity:1;" d="M 123.570312 148.363281 L 137.570312 148.363281 L 137.570312 159.363281 L 123.570312 159.363281 Z M 123.570312 148.363281 "/>
<g style="fill:rgb(0%,0%,100%);fill-opacity:1;">
  <use xlink:href="#glyph0-2" x="123.570312" y="157.026367"/>
  <use xlink:href="#glyph0-3" x="130.547852" y="157.026367"/>
</g>
<path style="fill:none;stroke-width:1.2;stroke-linecap:butt;stroke-linejoin:miter;stroke:rgb(0%,0%,0%);stroke-opacity:1;stroke-miterlimit:10;" d="M 115.078125 159.777344 L 102.210938 149.316406 "/>
<path style="fill:none;stroke-width:1.2;stroke-linecap:butt;stroke-linejoin:miter;stroke:rgb(0%,0%,0%);stroke-opacity:1;stroke-miterlimit:10;" d="M 111.328125 161.757812 L 101.035156 153.390625 "/>
<path style="fill:none;stroke-width:1.2;stroke-linecap:butt;stroke-linejoin:miter;stroke:rgb(0%,0%,0%);stroke-opacity:1;stroke-miterlimit:10;" d="M 112.453125 176.152344 L 115.078125 159.777344 "/>
<path style="fill:none;stroke-width:1.2;stroke-linecap:butt;stroke-linejoin:miter;stroke:rgb(0%,0%,0%);stroke-opacity:1;stroke-miterlimit:10;" d="M 102.210938 149.316406 L 86.71875 155.230469 "/>
<path style="fill:none;stroke-width:1.2;stroke-linecap:butt;stroke-linejoin:miter;stroke:rgb(0%,0%,0%);stroke-opacity:1;stroke-miterlimit:10;" d="M 86.71875 155.230469 L 84.09375 171.601562 "/>
<path style="fill:none;stroke-width:1.2;stroke-linecap:butt;stroke-linejoin:miter;stroke:rgb(0%,0%,0%);stroke-opacity:1;stroke-miterlimit:10;" d="M 90.308594 157.484375 L 88.207031 170.582031 "/>
<path style="fill:none;stroke-width:1.2;stroke-linecap:butt;stroke-linejoin:miter;stroke:rgb(0%,0%,0%);stroke-opacity:1;stroke-miterlimit:10;" d="M 86.71875 155.230469 L 73.851562 144.769531 "/>
<path style="fill:none;stroke-width:1.2;stroke-linecap:butt;stroke-linejoin:miter;stroke:rgb(0%,0%,0%);stroke-opacity:1;stroke-miterlimit:10;" d="M 84.09375 171.601562 L 96.960938 182.0625 "/>
<path style="fill:none;stroke-width:1.2;stroke-linecap:butt;stroke-linejoin:miter;stroke:rgb(0%,0%,0%);stroke-opacity:1;stroke-miterlimit:10;" d="M 96.960938 182.0625 L 112.453125 176.152344 "/>
<path style="fill:none;stroke-width:1.2;stroke-linecap:butt;stroke-linejoin:miter;stroke:rgb(0%,0%,0%);stroke-opacity:1;stroke-miterlimit:10;" d="M 97.117188 177.828125 L 109.511719 173.097656 "/>
<path style="fill:none;stroke-width:1.2;stroke-linecap:butt;stroke-linejoin:miter;stroke:rgb(0%,0%,0%);stroke-opacity:1;stroke-miterlimit:10;" d="M 112.453125 176.152344 L 125.320312 186.609375 "/>
<path style="fill:none;stroke-width:1.2;stroke-linecap:butt;stroke-linejoin:miter;stroke:rgb(0%,0%,0%);stroke-opacity:1;stroke-miterlimit:10;" d="M 73.851562 144.769531 L 75.164062 136.582031 "/>
<path style="fill:none;stroke-width:1.2;stroke-linecap:butt;stroke-linejoin:miter;stroke:rgb(0%,0%,100%);stroke-opacity:1;stroke-miterlimit:10;" d="M 75.164062 136.582031 L 76.476562 128.398438 "/>
<path style="fill:none;stroke-width:1.2;stroke-linecap:butt;stroke-linejoin:miter;stroke:rgb(0%,0%,0%);stroke-opacity:1;stroke-miterlimit:10;" d="M 70.261719 142.515625 L 71.3125 135.964844 "/>
<path style="fill:none;stroke-width:1.2;stroke-linecap:butt;stroke-linejoin:miter;stroke:rgb(0%,0%,100%);stroke-opacity:1;stroke-miterlimit:10;" d="M 71.3125 135.964844 L 72.359375 129.417969 "/>
<path style="fill:none;stroke-width:1.2;stroke-linecap:butt;stroke-linejoin:miter;stroke:rgb(0%,0%,0%);stroke-opacity:1;stroke-miterlimit:10;" d="M 58.359375 150.683594 L 73.851562 144.769531 "/>
<path style="fill:none;stroke-width:1.2;stroke-linecap:butt;stroke-linejoin:miter;stroke:rgb(0%,0%,100%);stroke-opacity:1;stroke-miterlimit:10;" d="M 76.476562 128.398438 L 63.609375 117.9375 "/>
<path style=" stroke:none;fill-rule:nonzero;fill:rgb(100%,100%,100%);fill-opacity:1;" d="M 73.476562 122.898438 L 80.476562 122.898438 L 80.476562 133.898438 L 73.476562 133.898438 Z M 73.476562 122.898438 "/>
<g style="fill:rgb(0%,0%,100%);fill-opacity:1;">
  <use xlink:href="#glyph0-2" x="73.476562" y="131.561523"/>
</g>
<path style="fill:none;stroke-width:1.2;stroke-linecap:butt;stroke-linejoin:miter;stroke:rgb(0%,0%,100%);stroke-opacity:1;stroke-miterlimit:10;" d="M 63.609375 117.9375 L 55.863281 120.894531 "/>
<path style="fill:none;stroke-width:1.2;stroke-linecap:butt;stroke-linejoin:miter;stroke:rgb(0%,0%,0%);stroke-opacity:1;stroke-miterlimit:10;" d="M 55.863281 120.894531 L 48.117188 123.847656 "/>
<path style="fill:none;stroke-width:1.2;stroke-linecap:butt;stroke-linejoin:miter;stroke:rgb(0%,0%,100%);stroke-opacity:1;stroke-miterlimit:10;" d="M 63.453125 122.171875 L 57.253906 124.539062 "/>
<path style="fill:none;stroke-width:1.2;stroke-linecap:butt;stroke-linejoin:miter;stroke:rgb(0%,0%,0%);stroke-opacity:1;stroke-miterlimit:10;" d="M 57.253906 124.539062 L 51.058594 126.902344 "/>
<path style=" stroke:none;fill-rule:nonzero;fill:rgb(100%,100%,100%);fill-opacity:1;" d="M 60.609375 112.4375 L 67.609375 112.4375 L 67.609375 123.4375 L 60.609375 123.4375 Z M 60.609375 112.4375 "/>
<g style="fill:rgb(0%,0%,100%);fill-opacity:1;">
  <use xlink:href="#glyph0-2" x="60.609375" y="121.100586"/>
</g>
<path style="fill:none;stroke-width:1.2;stroke-linecap:butt;stroke-linejoin:miter;stroke:rgb(0%,0%,0%);stroke-opacity:1;stroke-miterlimit:10;" d="M 48.117188 123.847656 L 41.683594 118.617188 "/>
<path style="fill:none;stroke-width:1.2;stroke-linecap:butt;stroke-linejoin:miter;stroke:rgb(0%,0%,100%);stroke-opacity:1;stroke-miterlimit:10;" d="M 41.683594 118.617188 L 35.25 113.390625 "/>
<path style="fill:none;stroke-width:1.2;stroke-linecap:butt;stroke-linejoin:miter;stroke:rgb(0%,0%,0%);stroke-opacity:1;stroke-miterlimit:10;" d="M 48.117188 123.847656 L 45.492188 140.222656 "/>
<path style=" stroke:none;fill-rule:nonzero;fill:rgb(100%,100%,100%);fill-opacity:1;" d="M 16.25 105.390625 L 35.25 105.390625 L 35.25 121.390625 L 16.25 121.390625 Z M 16.25 105.390625 "/>
<g style="fill:rgb(0%,0%,100%);fill-opacity:1;">
  <use xlink:href="#glyph0-3" x="16.25" y="114.053711"/>
</g>
<g style="fill:rgb(0%,0%,100%);fill-opacity:1;">
  <use xlink:href="#glyph1-1" x="23.264648" y="118.936523"/>
</g>
<g style="fill:rgb(0%,0%,100%);fill-opacity:1;">
  <use xlink:href="#glyph0-2" x="28.214844" y="114.053711"/>
</g>
<path style="fill:none;stroke-width:1.2;stroke-linecap:butt;stroke-linejoin:miter;stroke:rgb(0%,0%,0%);stroke-opacity:1;stroke-miterlimit:10;" d="M 45.492188 140.222656 L 58.359375 150.683594 "/>
<path style="fill:none;stroke-width:1.2;stroke-linecap:butt;stroke-linejoin:miter;stroke:rgb(0%,0%,0%);stroke-opacity:1;stroke-miterlimit:10;" d="M 49.238281 138.242188 L 59.53125 146.609375 "/>
</g>
</svg>

<svg xmlns="http://www.w3.org/2000/svg" xmlns:xlink="http://www.w3.org/1999/xlink" width="300pt" height="300pt" viewBox="0 0 300 300"><defs><symbol overflow="visible"><path d="M.453 1.594v-7.938h4.5v7.938zm.5-.5h3.5v-6.938h-3.5zm0 0"/></symbol><symbol overflow="visible" id="a"><path d="M3.547-5.953c-.65 0-1.164.242-1.547.72-.375.48-.563 1.13-.563 1.952 0 .835.188 1.49.563 1.967.383.48.898.72 1.547.72.644 0 1.156-.24 1.53-.72.376-.476.564-1.132.564-1.968 0-.822-.187-1.474-.562-1.954-.375-.477-.887-.72-1.53-.72zm0-.734c.914 0 1.648.312 2.203.937.55.617.828 1.438.828 2.47 0 1.042-.277 1.87-.828 2.483-.555.617-1.29.922-2.203.922-.93 0-1.668-.305-2.22-.922C.774-1.41.5-2.237.5-3.28c0-1.033.273-1.853.828-2.47.55-.625 1.29-.938 2.22-.938zm0 0"/></symbol><symbol overflow="visible" id="b"><path d="M.89-6.563H2.08l2.906 5.485v-5.484h.86V0H4.656L1.75-5.484V0H.89zm0 0"/></symbol><symbol overflow="visible" id="c"><path d="M.89-6.563h.876v2.688H5v-2.688h.89V0H5v-3.125H1.766V0H.89zm0 0"/></symbol><symbol overflow="visible"><path d="M.406 1.422V-5.64h4V1.42zM.844.97h3.11v-6.157H.843zm0 0"/></symbol><symbol overflow="visible" id="d"><path d="M1.53-.672h2.767V0H.594v-.672c.29-.3.695-.71 1.22-1.234.518-.532.842-.867.967-1.016.26-.28.44-.52.533-.72.1-.194.156-.39.156-.577 0-.31-.11-.565-.33-.764-.218-.196-.5-.297-.843-.297-.25 0-.516.046-.797.14-.273.085-.563.214-.875.39v-.797c.32-.133.617-.234.89-.297.282-.062.536-.093.766-.093.603 0 1.083.152 1.44.453.362.304.546.703.546 1.203 0 .24-.047.468-.14.686-.095.22-.26.477-.485.766-.074.074-.288.293-.64.656-.344.356-.836.856-1.47 1.5zm0 0"/></symbol></defs><g><path fill="#fff" d="M0 0h300v300H0z"/><path d="M205.406 140.672l6.434 5.23" stroke-width="1.2" stroke="#f00" stroke-miterlimit="10" fill="none"/><path d="M211.84 145.902l6.433 5.23" stroke-width="1.2" stroke="#000" stroke-miterlimit="10" fill="none"/><path d="M205.406 140.672l-7.746 2.957" stroke-width="1.2" stroke="#f00" stroke-miterlimit="10" fill="none"/><path d="M197.66 143.63l-7.746 2.956" stroke-width="1.2" stroke="#000" stroke-miterlimit="10" fill="none"/><path d="M201.406 135.172h8v11h-8zm0 0" fill="#fff"/><use xlink:href="#a" x="201.406" y="143.835" fill="#f00"/><path d="M218.273 151.133l15.493-5.91M233.766 145.223l6.433 5.23" stroke-width="1.2" stroke="#000" stroke-miterlimit="10" fill="none"/><path d="M240.2 150.453l6.433 5.227" stroke-width="1.2" stroke="#00f" stroke-miterlimit="10" fill="none"/><path d="M237.512 143.238l5.148 4.184" stroke-width="1.2" stroke="#000" stroke-miterlimit="10" fill="none"/><path d="M242.66 147.422l5.15 4.187" stroke-width="1.2" stroke="#00f" stroke-miterlimit="10" fill="none"/><path d="M236.39 128.848l-2.624 16.375" stroke-width="1.2" stroke="#000" stroke-miterlimit="10" fill="none"/><path d="M246.633 155.68l7.746-2.953" stroke-width="1.2" stroke="#00f" stroke-miterlimit="10" fill="none"/><path d="M254.38 152.727l7.745-2.957" stroke-width="1.2" stroke="#000" stroke-miterlimit="10" fill="none"/><path d="M243.633 150.18h7v11h-7zm0 0" fill="#fff"/><use xlink:href="#b" x="243.633" y="158.843" fill="#00f"/><path d="M262.125 149.77l2.625-16.375M258.535 147.512l2.102-13.098M264.75 133.395l-12.867-10.46M251.883 122.934l-15.492 5.914M251.727 127.172l-12.395 4.73M189.914 146.586l-12.867-10.46M186.164 148.566L175.87 140.2M187.29 162.96l2.624-16.374M177.047 136.125l-15.492 5.914M161.555 142.04l-2.625 16.374M165.145 144.293l-2.102 13.102M158.93 158.414l12.867 10.457M158.93 158.414l-15.493 5.91M171.797 168.87l15.492-5.91M171.953 164.637l12.395-4.73M141.512 164.016l-1.313 8.187" stroke-width="1.2" stroke="#000" stroke-miterlimit="10" fill="none"/><path d="M140.2 172.203l-1.317 8.188" stroke-width="1.2" stroke="#f00" stroke-miterlimit="10" fill="none"/><path d="M145.363 164.633l-1.312 8.187" stroke-width="1.2" stroke="#000" stroke-miterlimit="10" fill="none"/><path d="M144.05 172.82l-1.312 8.188" stroke-width="1.2" stroke="#f00" stroke-miterlimit="10" fill="none"/><path d="M143.438 164.324l-6.434-5.23" stroke-width="1.2" stroke="#000" stroke-miterlimit="10" fill="none"/><path d="M137.004 159.094l-6.434-5.23" stroke-width="1.2" stroke="#00f" stroke-miterlimit="10" fill="none"/><path d="M136.813 175.2h8v11h-8zm0 0" fill="#fff"/><use xlink:href="#a" x="136.813" y="183.862" fill="#f00"/><path d="M130.57 153.863l-7.746 2.957" stroke-width="1.2" stroke="#00f" stroke-miterlimit="10" fill="none"/><path d="M122.824 156.82l-7.746 2.957" stroke-width="1.2" stroke="#000" stroke-miterlimit="10" fill="none"/><path d="M123.57 148.363h14v11h-14zm0 0" fill="#fff"/><g fill="#00f"><use xlink:href="#b" x="123.57" y="157.026"/><use xlink:href="#c" x="130.548" y="157.026"/></g><path d="M115.078 159.777l-12.867-10.46M111.328 161.758l-10.293-8.367M112.453 176.152l2.625-16.375M102.21 149.316l-15.49 5.914M86.72 155.23l-2.626 16.372M90.31 157.484l-2.103 13.098M86.72 155.23L73.85 144.77M84.094 171.602l12.867 10.46M96.96 182.063l15.493-5.91M97.117 177.828l12.395-4.73M112.453 176.152l12.867 10.457M73.852 144.77l1.312-8.188" stroke-width="1.2" stroke="#000" stroke-miterlimit="10" fill="none"/><path d="M75.164 136.582l1.313-8.184" stroke-width="1.2" stroke="#00f" stroke-miterlimit="10" fill="none"/><path d="M70.262 142.516l1.05-6.55" stroke-width="1.2" stroke="#000" stroke-miterlimit="10" fill="none"/><path d="M71.313 135.965l1.046-6.547" stroke-width="1.2" stroke="#00f" stroke-miterlimit="10" fill="none"/><path d="M58.36 150.684l15.492-5.914" stroke-width="1.2" stroke="#000" stroke-miterlimit="10" fill="none"/><path d="M76.477 128.398l-12.868-10.46" stroke-width="1.2" stroke="#00f" stroke-miterlimit="10" fill="none"/><path d="M73.477 122.898h7v11h-7zm0 0" fill="#fff"/><use xlink:href="#b" x="73.477" y="131.562" fill="#00f"/><path d="M63.61 117.938l-7.747 2.957" stroke-width="1.2" stroke="#00f" stroke-miterlimit="10" fill="none"/><path d="M55.863 120.895l-7.746 2.953" stroke-width="1.2" stroke="#000" stroke-miterlimit="10" fill="none"/><path d="M63.453 122.172l-6.2 2.367" stroke-width="1.2" stroke="#00f" stroke-miterlimit="10" fill="none"/><path d="M57.254 124.54L51.06 126.9" stroke-width="1.2" stroke="#000" stroke-miterlimit="10" fill="none"/><path d="M60.61 112.438h7v11h-7zm0 0" fill="#fff"/><use xlink:href="#b" x="60.609" y="121.101" fill="#00f"/><path d="M48.117 123.848l-6.433-5.23" stroke-width="1.2" stroke="#000" stroke-miterlimit="10" fill="none"/><path d="M41.684 118.617l-6.434-5.226" stroke-width="1.2" stroke="#00f" stroke-miterlimit="10" fill="none"/><path d="M48.117 123.848l-2.625 16.375" stroke-width="1.2" stroke="#000" stroke-miterlimit="10" fill="none"/><path d="M16.25 105.39h19v16h-19zm0 0" fill="#fff"/><use xlink:href="#c" x="16.25" y="114.054" fill="#00f"/><use xlink:href="#d" x="23.265" y="118.937" fill="#00f"/><use xlink:href="#b" x="28.215" y="114.054" fill="#00f"/><path d="M45.492 140.223l12.867 10.46M49.238 138.242l10.293 8.367" stroke-width="1.2" stroke="#000" stroke-miterlimit="10" fill="none"/></g></svg>
